images/main-footer/logo-html-academy/logo-html-academy_active.svg

<svg width="115" height="34" viewBox="0 0 115 34" fill="none" xmlns="http://www.w3.org/2000/svg">
<path d="M0 13.4232V16.0232H2.5V13.4232H0Z" fill="#756157" fill-opacity="0.3"/>
<path d="M11.6 5.02319C10 5.02319 8.8 5.72319 8 6.72319H7.9V0.523193H5.9V16.0232H7.9V10.7232C7.9 8.62319 9.2 7.12319 11.2 7.12319C13 7.12319 14.1 8.52319 14.1 10.3232V16.0232H16.1V9.92319C16.2 6.92319 14.3 5.02319 11.6 5.02319Z" fill="#756157" fill-opacity="0.3"/>
<path d="M26.6 5.32319H21.8V1.62319H19.8V5.42319H17.9V7.42319H19.8V13.4232C19.8 15.1232 20.8 16.1232 22.5 16.1232H26.6V14.1232H22.9C22.2 14.1232 21.8 13.7232 21.8 13.0232V7.32319H26.6V5.32319Z" fill="#756157" fill-opacity="0.3"/>
<path d="M41.1 5.12319C39.5 5.12319 38.2 5.92319 37.6 7.22319H37.5C36.9 6.02319 35.7 5.12319 34.1 5.12319C32.7 5.12319 31.6 5.92319 31 6.92319H30.9V5.32319H29V15.9232H31V10.5232C31 8.52319 32 7.02319 33.6 7.02319C35.1 7.02319 36 8.02319 36 9.62319V15.9232H38V10.3232C38 7.92319 39.4 7.02319 40.6 7.02319C42.1 7.02319 43 8.02319 43 9.62319V15.9232H45V9.42319C45.1 6.92319 43.6 5.12319 41.1 5.12319Z" fill="#756157" fill-opacity="0.3"/>
<path d="M47.8 13.2232C47.8 14.9232 48.8 15.9232 50.6 15.9232H52.6V13.9232H50.9C50.2 13.9232 49.8 13.5232 49.8 12.8232V0.523193H47.8V13.2232Z" fill="#756157" fill-opacity="0.3"/>
<path d="M28.9 20.2232C28 19.1232 26.7 18.4232 25 18.4232C21.9 18.4232 19.6 20.7232 19.6 24.0232C19.6 27.3232 21.9 29.6232 25 29.6232C26.8 29.6232 28 28.8232 28.8 27.7232H28.9V29.3232H30.9V18.7232H28.9V20.2232ZM25.3 27.6232C23.1 27.6232 21.7 26.0232 21.7 24.0232C21.7 22.0232 23.1 20.4232 25.3 20.4232C27.5 20.4232 28.9 22.0232 28.9 24.0232C28.9 25.9232 27.5 27.6232 25.3 27.6232Z" fill="#756157" fill-opacity="0.3"/>
<path d="M44.2 22.5232C43.7 20.1232 41.6 18.4232 38.8 18.4232C35.4 18.4232 33.2 20.9232 33.2 24.0232C33.2 27.1232 35.4 29.6232 38.8 29.6232C41.6 29.6232 43.7 27.8232 44.2 25.4232H42.1C41.7 26.7232 40.4 27.7232 38.8 27.7232C36.6 27.7232 35.2 26.1232 35.2 24.1232C35.2 22.1232 36.6 20.5232 38.8 20.5232C40.4 20.5232 41.6 21.5232 42.1 22.7232H44.2V22.5232Z" fill="#756157" fill-opacity="0.3"/>
<path d="M55.1 20.2232C54.2 19.1232 52.9 18.4232 51.2 18.4232C48.1 18.4232 45.8 20.7232 45.8 24.0232C45.8 27.3232 48.1 29.6232 51.2 29.6232C53 29.6232 54.2 28.8232 55 27.7232H55.1V29.3232H57.1V18.7232H55.1V20.2232ZM51.5 27.6232C49.3 27.6232 47.9 26.0232 47.9 24.0232C47.9 22.0232 49.3 20.4232 51.5 20.4232C53.7 20.4232 55.1 22.0232 55.1 24.0232C55.1 25.9232 53.6 27.6232 51.5 27.6232Z" fill="#756157" fill-opacity="0.3"/>
<path d="M68.7 20.3232C67.8 19.2232 66.5 18.4232 64.8 18.4232C61.7 18.4232 59.4 20.7232 59.4 24.0232C59.4 27.3232 61.6 29.6232 64.8 29.6232C66.5 29.6232 67.8 28.8232 68.6 27.8232H68.7V29.3232H70.7V13.9232H68.7V20.3232ZM65.1 27.6232C62.9 27.6232 61.5 26.0232 61.5 24.0232C61.5 22.0232 62.9 20.4232 65.1 20.4232C67.3 20.4232 68.7 22.0232 68.7 24.0232C68.6 26.0232 67.2 27.6232 65.1 27.6232Z" fill="#756157" fill-opacity="0.3"/>
<path d="M78.3 18.4232C75 18.4232 72.8 20.9232 72.8 24.0232C72.8 27.0232 74.9 29.6232 78.3 29.6232C80.8 29.6232 82.8 28.3232 83.5 26.0232H81.4C80.9 27.0232 79.8 27.6232 78.4 27.6232C76.5 27.6232 75.1 26.3232 75 24.7232H83.8C84 21.1232 81.8 18.4232 78.3 18.4232ZM78.3 20.3232C80 20.3232 81.3 21.3232 81.6 22.9232H75.1C75.4 21.4232 76.6 20.3232 78.3 20.3232Z" fill="#756157" fill-opacity="0.3"/>
<path d="M98.2 18.4232C96.6 18.4232 95.3 19.2232 94.6 20.4232H94.5C93.9 19.2232 92.7 18.4232 91.1 18.4232C89.7 18.4232 88.6 19.1232 88 20.2232V18.7232H86.1V29.3232H88.1V23.9232C88.1 21.9232 89.1 20.5232 90.7 20.4232C92.2 20.4232 93.1 21.4232 93.1 23.0232V29.3232H95.1V23.7232C95.1 21.3232 96.5 20.4232 97.7 20.4232C99.2 20.4232 100.1 21.4232 100.1 23.0232V29.3232H102.1V22.8232C102.2 20.2232 100.7 18.4232 98.2 18.4232Z" fill="#756157" fill-opacity="0.3"/>
<path d="M109.4 27.5232L105.8 18.6232H103.6L108.4 30.2232C108.1 31.1232 107.7 31.4232 106.7 31.4232H104.2V33.4232H106.7C108.5 33.4232 109.5 32.6232 110.2 30.8232L114.9 18.6232H112.8L109.4 27.5232Z" fill="#756157" fill-opacity="0.3"/>
</svg>

<svg xmlns="http://www.w3.org/2000/svg" width="115" height="34" fill="none"><path fill="#756157" fill-opacity=".3" d="M0 13.423v2.6h2.5v-2.6H0ZM11.6 5.023c-1.6 0-2.8.7-3.6 1.7h-.1v-6.2h-2v15.5h2v-5.3c0-2.1 1.3-3.6 3.3-3.6 1.8 0 2.9 1.4 2.9 3.2v5.7h2v-6.1c.1-3-1.8-4.9-4.5-4.9ZM26.6 5.323h-4.8v-3.7h-2v3.8h-1.9v2h1.9v6c0 1.7 1 2.7 2.7 2.7h4.1v-2h-3.7c-.7 0-1.1-.4-1.1-1.1v-5.7h4.8v-2ZM41.1 5.123c-1.6 0-2.9.8-3.5 2.1h-.1c-.6-1.2-1.8-2.1-3.4-2.1-1.4 0-2.5.8-3.1 1.8h-.1v-1.6H29v10.6h2v-5.4c0-2 1-3.5 2.6-3.5 1.5 0 2.4 1 2.4 2.6v6.3h2v-5.6c0-2.4 1.4-3.3 2.6-3.3 1.5 0 2.4 1 2.4 2.6v6.3h2v-6.5c.1-2.5-1.4-4.3-3.9-4.3ZM47.8 13.223c0 1.7 1 2.7 2.8 2.7h2v-2h-1.7c-.7 0-1.1-.4-1.1-1.1V.523h-2v12.7ZM28.9 20.223c-.9-1.1-2.2-1.8-3.9-1.8-3.1 0-5.4 2.3-5.4 5.6s2.3 5.6 5.4 5.6c1.8 0 3-.8 3.8-1.9h.1v1.6h2v-10.6h-2v1.5Zm-3.6 7.4c-2.2 0-3.6-1.6-3.6-3.6s1.4-3.6 3.6-3.6 3.6 1.6 3.6 3.6c0 1.9-1.4 3.6-3.6 3.6ZM44.2 22.523c-.5-2.4-2.6-4.1-5.4-4.1-3.4 0-5.6 2.5-5.6 5.6 0 3.1 2.2 5.6 5.6 5.6 2.8 0 4.9-1.8 5.4-4.2h-2.1c-.4 1.3-1.7 2.3-3.3 2.3-2.2 0-3.6-1.6-3.6-3.6s1.4-3.6 3.6-3.6c1.6 0 2.8 1 3.3 2.2h2.1v-.2ZM55.1 20.223c-.9-1.1-2.2-1.8-3.9-1.8-3.1 0-5.4 2.3-5.4 5.6s2.3 5.6 5.4 5.6c1.8 0 3-.8 3.8-1.9h.1v1.6h2v-10.6h-2v1.5Zm-3.6 7.4c-2.2 0-3.6-1.6-3.6-3.6s1.4-3.6 3.6-3.6 3.6 1.6 3.6 3.6c0 1.9-1.5 3.6-3.6 3.6ZM68.7 20.323c-.9-1.1-2.2-1.9-3.9-1.9-3.1 0-5.4 2.3-5.4 5.6s2.2 5.6 5.4 5.6c1.7 0 3-.8 3.8-1.8h.1v1.5h2v-15.4h-2v6.4Zm-3.6 7.3c-2.2 0-3.6-1.6-3.6-3.6s1.4-3.6 3.6-3.6 3.6 1.6 3.6 3.6c-.1 2-1.5 3.6-3.6 3.6ZM78.3 18.423c-3.3 0-5.5 2.5-5.5 5.6 0 3 2.1 5.6 5.5 5.6 2.5 0 4.5-1.3 5.2-3.6h-2.1c-.5 1-1.6 1.6-3 1.6-1.9 0-3.3-1.3-3.4-2.9h8.8c.2-3.6-2-6.3-5.5-6.3Zm0 1.9c1.7 0 3 1 3.3 2.6h-6.5c.3-1.5 1.5-2.6 3.2-2.6ZM98.2 18.423c-1.6 0-2.9.8-3.6 2h-.1c-.6-1.2-1.8-2-3.4-2-1.4 0-2.5.7-3.1 1.8v-1.5h-1.9v10.6h2v-5.4c0-2 1-3.4 2.6-3.5 1.5 0 2.4 1 2.4 2.6v6.3h2v-5.6c0-2.4 1.4-3.3 2.6-3.3 1.5 0 2.4 1 2.4 2.6v6.3h2v-6.5c.1-2.6-1.4-4.4-3.9-4.4ZM109.4 27.523l-3.6-8.9h-2.2l4.8 11.6c-.3.9-.7 1.2-1.7 1.2h-2.5v2h2.5c1.8 0 2.8-.8 3.5-2.6l4.7-12.2h-2.1l-3.4 8.9Z"/></svg>
